X:1
T:Wragg's Duetto No20,A March,aka.3voices. AJH.035
T:Wragg's Duetto No20,A March,aka.3voices. AJH.035
T:untitled in MS
C:untitled in MS
%%score 1 2 3
L:1/8
Q:1/4=140
M:4/4
K:G
V:1 treble 
V:2 treble 
V:3 bass 
V:1
|: D2 | G2 G>G G2 A2 | B2 B>B B2 c2 | de/f/ g/f/.e/.d/ edcB | A2 A>A A2 D2 | G2 G>G G2 A2 | %6
 B2 B>B B2 c2 | .d>e.f>g B2 A2 | G2 G>G G2 A2 | d2 d>d d2 e2 | f2 f>f f2 g2 | afaf bagf | %12
 e2 e>e e2 A2 | d2 d>d d2 e2 | f2 f>f f2 g2 | a>gb>g f>ed>^c | d2 d>e d>cB>A | G2 G>G G2 A2 | %18
 B2 B>B B2 c2 | de/f/ g/f/.e/.d/ edcB | A2 A>A A2 D2 | G2 G>G G2 A2 | B2 B>B B2 c2 | %23
 d/e/f/g/ f/e/d/c/ B2 A2 | G3 D GDGD | B3 G BGBG | d3 B dBdB | g3 d gege | g>ab>a g>fe>d | %29
 e>fg>f e>dc>B |{FG} A8 |{GA} G3 b gbgb | g2 z2 g2 z2 | g8 |] %34
V:2
|: z2 | z4 z2 D2 | G2 G>G G2 A2 | Bc/d/ e/d/c/B/ cBAG | D2 D>D D2 z2 | z4 z2 D2 | G2 G>G G2 A2 | %7
 B>cA>B G2 F2 | G2 B>B B2 z2 | z4 z2 A2 | d2 d>d d2 e2 | fdfd gf.e.d | A2 A>A A>GF>E | %13
 D2 z2 z2 A2 | d2 d>d d2 e2 | d>eg>e d2 A2 | D2 d>c B>A G>F | G2 z2 z2 D2 | G2 G>G G2 A2 | %19
 Bc/d/ e/d/.c/.B/ cBAG | D2 D>D D2 z2 | B4 z2 D2 | G2 G>G G2 A2 | B>B d/c/B/A/ G2 F2 | G2 z2 z4 | %25
 G3 D GDGD | B3 G BGBG | d3 B dBdB | G2 z2 z4 | g>ab>a g>fe>d | cBcB d2 D2 | D3 d BdBd | %32
 GBdB GBdB | G8 |] %34
V:3
|: z2 | G,2 G,>G, G,2 G,,2 | D,2 D,>D, D,2 A,,2 | D,2 G,2 A,2 G,,2 | D,2 D,>D, D,2 z2 | %5
 G,,2 G,,>G,, G,,2 A,,2 | D,2 D,>D, D,2 E,2 | G,2 B,,2 C,2 D,2 | G,,2 G,,>G,, G,,2 z2 | %9
 D,2 D,>D, D,2 A,,2 | D,2 D,>D, D,2 G,2 | F,2 D,2 G,2 E,2 | A,,2 A,>A,, A,,2 z2 | %13
 D,2 D,>D, D,2 z2 | F,2 F,>F, F,2 G,2 | F,2 D,2 D,2 A,,2 | D,2 D,2 D,>C,B,,>A,, | %17
 G,,2 G,,>G,, G,,2 A,,2 | D,2 D,>D, D,2 A,,2 | D,2 E,2 C,B,,A,,G,, | D,2 D,>D, D,2 z2 | %21
 G,2 G,>G, G,2 z2 | D,2 D,>D, D,2 z2 | D,F, D,B,, G,2 D,2 | G,,3 G,, G,,2 G,,2 | D,3 G, G,2 G,2 | %26
 D,3 G, D,2 G,,2 | G,,3 G,, G,2 G,2 | D,2 B,,2 G,2 E,2 | G,2 B,,2 G,2 E,2 | A,,4 D,4 | %31
 G,,3 D, G,2 G,2 | G,2 z2 G,2 z2 | G,,8 |] %34

